source/img/icons/youtube.svg

<svg width="46" height="48" fill="none" xmlns="http://www.w3.org/2000/svg"><path fill="#81B3D2" d="M0 0h46v48H0z"/><path d="M30.1 17H15.8a2.9 2.9 0 00-2.8 2.8v8.3c0 1.6 1.3 2.9 2.8 2.9h14.3c1.6 0 2.8-1.3 2.8-2.8v-8.4c.1-1.5-1.2-2.8-2.8-2.8zM20 27.4v-6.8l6.8 3.4-6.8 3.4z" fill="#fff"/></svg>

<svg width="46" height="48" viewBox="0 0 46 48" fill="none" xmlns="http://www.w3.org/2000/svg">
<rect width="46" height="48" fill="#81B3D2"/>
<path d="M30.1 17H15.8C14.3 17 13 18.3 13 19.8V28.1C13 29.7 14.3 31 15.8 31H30.1C31.7 31 32.9 29.7 32.9 28.2V19.8C33 18.3 31.7 17 30.1 17ZM20 27.4V20.6L26.8 24L20 27.4Z" fill="white"/>
</svg>
